icons/bx_bxs-phone-call.svg

<svg width="35" height="32" viewBox="0 0 35 32" fill="none" xmlns="http://www.w3.org/2000/svg">
<path d="M29.1358 14.6654H32.0494C32.0494 7.82541 26.4072 2.66675 18.9237 2.66675V5.33341C24.8412 5.33341 29.1358 9.25741 29.1358 14.6654Z" fill="#CD06FF"/>
<path d="M18.9382 10.6667C22.0019 10.6667 23.3086 11.8627 23.3086 14.6667H26.2222C26.2222 10.3667 23.6364 7.99999 18.9382 7.99999V10.6667ZM23.9234 17.924C23.6435 17.6911 23.2756 17.5669 22.8975 17.5776C22.5194 17.5883 22.1607 17.7331 21.897 17.9813L18.4109 21.2627C17.5718 21.116 15.8848 20.6347 14.1483 19.0493C12.4118 17.4587 11.8859 15.9107 11.73 15.148L15.3123 11.956C15.5839 11.7148 15.7422 11.3864 15.7539 11.0403C15.7656 10.6941 15.6297 10.3574 15.3749 10.1013L9.9921 4.68399C9.73722 4.42714 9.38298 4.27133 9.00462 4.24967C8.62625 4.22801 8.25356 4.3422 7.9657 4.56799L4.80447 7.04933C4.55261 7.28068 4.40228 7.58859 4.382 7.91466C4.36015 8.24799 3.94351 16.144 10.6331 22.2693C16.469 27.6093 23.7792 28 25.7924 28C26.0867 28 26.2674 27.992 26.3154 27.9893C26.6716 27.9711 27.0079 27.8329 27.2594 27.6013L29.9691 24.7067C30.2159 24.4434 30.341 24.1024 30.3176 23.7561C30.2942 23.4098 30.1242 23.0855 29.8438 22.852L23.9234 17.924Z" fill="#CD06FF"/>
</svg>

<svg width="35" height="32" fill="none" xmlns="http://www.w3.org/2000/svg"><path d="M29.136 14.665h2.913c0-6.84-5.642-11.998-13.125-11.998v2.666c5.917 0 10.212 3.924 10.212 9.332Z" fill="#CD06FF"/><path d="M18.938 10.667c3.064 0 4.37 1.196 4.37 4h2.914c0-4.3-2.586-6.667-7.284-6.667v2.667Zm4.985 7.257a1.54 1.54 0 0 0-1.025-.346c-.379.01-.737.155-1.001.403l-3.486 3.282c-.84-.147-2.526-.628-4.263-2.214-1.736-1.59-2.262-3.138-2.418-3.901l3.582-3.192c.272-.241.43-.57.442-.916a1.27 1.27 0 0 0-.38-.939L9.993 4.684a1.513 1.513 0 0 0-.987-.434 1.545 1.545 0 0 0-1.04.318l-3.16 2.481c-.252.232-.403.54-.423.866-.022.333-.438 8.229 6.251 14.354C16.47 27.61 23.78 28 25.793 28c.294 0 .474-.008.522-.01.357-.019.693-.157.944-.389l2.71-2.894c.247-.264.372-.605.349-.95a1.293 1.293 0 0 0-.474-.905l-5.92-4.928Z" fill="#CD06FF"/></svg>
